X:1
T:Pange lingua
T:Pange lingua
T:Traditional Mozarabic chant Text attrib. Thomas Aquinas
C:Traditional
L:1/8
M:3/1
K:F
V:1 treble nm="Piano" snm="Pno."
V:1
"_3. In supremae nocte coenae\nRecumbens cum fratribus,\nObservata lege plene\nCibis in legalibus,\nCibum turbae duodenae\nSe dat suis manibus\n\n4. Verbum caro, panem verum\nVerbo carnem efficit:\nFitque sanguis Christi merum,\nEt si sensus deficit,\nAd firmandum cor sincerum\nSola fides sufficit." F16 G8 | %1
w: Pan ge,|
w: No- bis~|
 A16 A8 | A16 G8 | B24 | A16 G8 | A16 G8 | F24 | F16 G8 | A16 G8 | F16 E8 | F24 | F16 A8 | c16 c8 | %13
w: lin- gua,|glo- ri-|o-|si- *|||Cor- por-|is my-|ster- i-|um,|San- gui-|nis- que|
w: da- tus,~|no- bis|na-|tus- *|||Ex in-|tac- ta|Vir- gi-|ne,|Et in|mun- do|
 d16 d8 | c16 =B8 | c24 | c16 d8 | f16 e8 | d16 f8 | e16 d8 | c24 | F16 G8 | A16 A8 | A16 G8 | %24
w: pre- ti-|o- *|si,|Quem in|mun- di|pre- ti-|u- *|m|Fruc- tis|ven- tris|gen- er-|
w: con- ver-|sa- *|tus,|Spar- so|ver- bi|sem- i-|ne,- *||Su- i|mor- as|in- col-|
 B24 | A16 G8 | A16 G8 | F24 | F16 G8 | A16 G8 | F16 E8 | %31
w: o-|si- *|||Rex ef-|fu- dit|gen- ti-|
w: la-|tus- *|||Mi- ro|clau- sit|or- di-|
"_5. Tantum ergo Sacramentum\nVeneremur cernui:\nEt antiquum documentum\nNovo cedat ritui:\nPraestet fides supplementum\nSensuum defectui.\n\n6. Genitori, Genitoque\nLaus et jubilatio,\nSalus, honor, virtus quoque\nSit et benedictio:\nProcedenti ab utroque\nCompar sit laudatio. Amen." F24 |] %32
w: um.|
w: ne.|

